Simply-Orange-Circles/scalable/apps/gnome-boxes.svg

<svg xmlns="http://www.w3.org/2000/svg" width="48" height="48" viewBox="0 0 12.7 12.7"><path d="M6.34.07a6.29 6.29 0 0 0-6.29 6.3 6.29 6.29 0 0 0 6.3 6.28 6.29 6.29 0 0 0 6.28-6.29A6.29 6.29 0 0 0 6.34.07zm-.01.94a5.4 5.4 0 0 1 5.4 5.4 5.4 5.4 0 0 1-5.4 5.41 5.4 5.4 0 0 1-5.41-5.4A5.4 5.4 0 0 1 6.32 1zM3.57 2.65a.93.93 0 0 0-.92.92.93.93 0 0 0 .52.84v3.88a.93.93 0 0 0-.52.84.93.93 0 0 0 .92.92.93.93 0 0 0 .84-.53h3.88a.93.93 0 0 0 .84.53.93.93 0 0 0 .92-.92.93.93 0 0 0-.53-.84V4.41a.93.93 0 0 0 .53-.84.93.93 0 0 0-.92-.92.93.93 0 0 0-.84.52H4.41a.93.93 0 0 0-.84-.52zM4.5 3.7H8.2a.93.93 0 0 0 .17.41l-.59.6-.13.12a.53.53 0 0 0-.25-.07.53.53 0 0 0-.46.27h-1.2a.53.53 0 0 0-.46-.27.53.53 0 0 0-.25.07L4.9 4.7l-.59-.59a.93.93 0 0 0 .17-.4zm-.38.62l.6.6.12.12a.53.53 0 0 0-.07.25.53.53 0 0 0 .27.46v1.2a.53.53 0 0 0-.27.46.53.53 0 0 0 .07.25l-.13.13-.59.59a.93.93 0 0 0-.4-.17V4.5a.93.93 0 0 0 .4-.17zm4.48 0a.93.93 0 0 0 .4.17V8.2a.93.93 0 0 0-.4.17l-.4-.4-.2-.19-.12-.13a.53.53 0 0 0 .07-.25.53.53 0 0 0-.27-.46v-1.2a.53.53 0 0 0 .27-.46.53.53 0 0 0-.07-.25L8 4.9l.59-.59zm-2.77.97h1.06a.53.53 0 0 0 .53.53v1.06a.53.53 0 0 0-.53.53H5.82a.53.53 0 0 0-.53-.53V5.82a.53.53 0 0 0 .53-.53zm-.07 2.38h1.2a.53.53 0 0 0 .46.27.53.53 0 0 0 .25-.07L7.8 8l.59.59a.93.93 0 0 0-.17.4H4.5a.93.93 0 0 0-.17-.4l.59-.6.13-.12a.53.53 0 0 0 .25.07.53.53 0 0 0 .46-.27z" fill="#ff7f2a"/></svg>

<?xml version="1.0" encoding="UTF-8" standalone="no"?>
<svg
   xmlns:dc="http://purl.org/dc/elements/1.1/"
   xmlns:cc="http://creativecommons.org/ns#"
   xmlns:rdf="http://www.w3.org/1999/02/22-rdf-syntax-ns#"
   xmlns:svg="http://www.w3.org/2000/svg"
   xmlns="http://www.w3.org/2000/svg"
   xmlns:sodipodi="http://sodipodi.sourceforge.net/DTD/sodipodi-0.dtd"
   xmlns:inkscape="http://www.inkscape.org/namespaces/inkscape"
   width="48"
   height="48"
   viewBox="0 0 12.7 12.7"
   version="1.1"
   id="svg4"
   sodipodi:docname="gnome-boxes.svg"
   inkscape:version="0.92.4 (5da689c313, 2019-01-14)">
  <metadata
     id="metadata10">
    <rdf:RDF>
      <cc:Work
         rdf:about="">
        <dc:format>image/svg+xml</dc:format>
        <dc:type
           rdf:resource="http://purl.org/dc/dcmitype/StillImage" />
        <dc:title></dc:title>
      </cc:Work>
    </rdf:RDF>
  </metadata>
  <defs
     id="defs8" />
  <sodipodi:namedview
     pagecolor="#ffffff"
     bordercolor="#666666"
     borderopacity="1"
     objecttolerance="10"
     gridtolerance="10"
     guidetolerance="10"
     inkscape:pageopacity="0"
     inkscape:pageshadow="2"
     inkscape:window-width="1087"
     inkscape:window-height="480"
     id="namedview6"
     showgrid="false"
     inkscape:zoom="4.9166667"
     inkscape:cx="2.1355932"
     inkscape:cy="24"
     inkscape:window-x="0"
     inkscape:window-y="25"
     inkscape:window-maximized="0"
     inkscape:current-layer="svg4" />
  <path
     d="M 6.34,0.07 A 6.29,6.29 0 0 0 0.05,6.37 6.29,6.29 0 0 0 6.35,12.65 6.29,6.29 0 0 0 12.63,6.36 6.29,6.29 0 0 0 6.34,0.07 Z M 6.33,1.01 a 5.4,5.4 0 0 1 5.4,5.4 5.4,5.4 0 0 1 -5.4,5.41 A 5.4,5.4 0 0 1 0.92,6.42 5.4,5.4 0 0 1 6.32,1 Z M 3.57,2.65 A 0.93,0.93 0 0 0 2.65,3.57 0.93,0.93 0 0 0 3.17,4.41 V 8.29 A 0.93,0.93 0 0 0 2.65,9.13 0.93,0.93 0 0 0 3.57,10.05 0.93,0.93 0 0 0 4.41,9.52 H 8.29 A 0.93,0.93 0 0 0 9.13,10.05 0.93,0.93 0 0 0 10.05,9.13 0.93,0.93 0 0 0 9.52,8.29 V 4.41 A 0.93,0.93 0 0 0 10.05,3.57 0.93,0.93 0 0 0 9.13,2.65 0.93,0.93 0 0 0 8.29,3.17 H 4.41 A 0.93,0.93 0 0 0 3.57,2.65 Z M 4.5,3.7 H 8.2 A 0.93,0.93 0 0 0 8.37,4.11 L 7.78,4.71 7.65,4.83 A 0.53,0.53 0 0 0 7.4,4.76 0.53,0.53 0 0 0 6.94,5.03 H 5.74 A 0.53,0.53 0 0 0 5.28,4.76 0.53,0.53 0 0 0 5.03,4.83 L 4.9,4.7 4.31,4.11 a 0.93,0.93 0 0 0 0.17,-0.4 z m -0.38,0.62 0.6,0.6 0.12,0.12 A 0.53,0.53 0 0 0 4.77,5.29 0.53,0.53 0 0 0 5.04,5.75 v 1.2 A 0.53,0.53 0 0 0 4.77,7.41 0.53,0.53 0 0 0 4.84,7.66 L 4.71,7.79 4.12,8.38 A 0.93,0.93 0 0 0 3.72,8.21 V 4.5 a 0.93,0.93 0 0 0 0.4,-0.17 z m 4.48,0 A 0.93,0.93 0 0 0 9,4.49 V 8.2 A 0.93,0.93 0 0 0 8.6,8.37 L 8.2,7.97 8,7.78 7.88,7.65 A 0.53,0.53 0 0 0 7.95,7.4 0.53,0.53 0 0 0 7.68,6.94 V 5.74 A 0.53,0.53 0 0 0 7.95,5.28 0.53,0.53 0 0 0 7.88,5.03 L 8,4.9 8.59,4.31 Z M 5.83,5.29 H 6.89 A 0.53,0.53 0 0 0 7.42,5.82 V 6.88 A 0.53,0.53 0 0 0 6.89,7.41 H 5.82 A 0.53,0.53 0 0 0 5.29,6.88 V 5.82 A 0.53,0.53 0 0 0 5.82,5.29 Z M 5.76,7.67 h 1.2 A 0.53,0.53 0 0 0 7.42,7.94 0.53,0.53 0 0 0 7.67,7.87 L 7.8,8 8.39,8.59 A 0.93,0.93 0 0 0 8.22,8.99 H 4.5 A 0.93,0.93 0 0 0 4.33,8.59 L 4.92,7.99 5.05,7.87 A 0.53,0.53 0 0 0 5.3,7.94 0.53,0.53 0 0 0 5.76,7.67 Z"
     id="path2"
     inkscape:connector-curvature="0"
     style="fill:#ff7f2a" />
</svg>
